!!!!SEGMENT: pl-gd--ee-1638--006-026_marenzio-luca--il-quinto-libro-de-madrigalia-a-cinque-voci-due-rose-fresche.krn
!!!cenid: 15xx:908
!!!COM: Marenzio, Luca
!!!COM-rismID: pe30003955
!!!CDT: ~1553-1599/08/22
!!!CNT: Italian
!!!GTL: Il Quinto libro de madrigalia a cinque voci
!!!OTL: Due rose fresche
!!!OMV: 026
!!!PDT: 1585
!!!AGN:
!!!SMS-siglum: PL-GD
!!!SMS-shelfmark: Ee 1638
!!!SMS-variant:
!!!SMS-altvar:
!!!SMS-shelfwork: 006-026 G
!!!NIFC-rismSourceID: 1001202747
!!!NIFC-rismChildID: 990039296
!!!NIFC-islandoraID: pl-gd:57883
!!!URL-pdf-islandora: https://repozytorium.nifc.pl/islandora/object/pl-gd%3A57883/datastream/PDF/view
!!!URL-scan: https://polish.musicsources.pl/pl/lokalizacje/galeria/klocki-introligatorskie/655 @EN{Scan on Polish Music Sources Website} @PL{Skany w portalu Dziedzictwo Muzyki Polskiej w otwartym dostępie}
!!!ONB-nifc: UWAGA: zbiór na stronach: Canto: s. 678-692, Alto: s. 526-540, Tenore: s. 374-388, Basso: s.222-236, Quinto: s. 69-84. Uwaga: utwory podzielone wg tytułów w spisach treści dostępnych na końcu każdej księgi głosowej.
!!!AIN: 1 alto 1 bass 2 soprn 1 tenor
!!!key: d:dor
**kern	**text	**kern	**text	**kern	**text	**kern	**text	**kern	**text
*part5	*part5	*part4	*part4	*part3	*part3	*part2	*part2	*part1	*part1
*staff5	*staff5	*staff4	*staff4	*staff3	*staff3	*staff2	*staff2	*staff1	*staff1
*I"BASSO	*	*I"TENORE	*	*I"ALTO	*	*I"QVINTO	*	*I"CANTO	*
*I'B	*	*I'T	*	*I'A	*	*I'V 5	*	*I'S	*
*Ibass	*	*Itenor	*	*Ialto	*	*Isoprn	*	*Isoprn	*
*ICvox	*	*ICvox	*	*ICvox	*	*ICvox	*	*ICvox	*
*clefF4	*	*clefC4	*	*clefC3	*	*clefC1	*	*clefC1	*
*k[b-]	*	*k[b-]	*	*k[b-]	*	*k[b-]	*	*k[b-]	*
*d:dor	*	*d:dor	*	*d:dor	*	*d:dor	*	*d:dor	*
*M2/1	*	*M2/1	*	*M2/1	*	*M2/1	*	*M2/1	*
*met(C)	*	*met(C)	*	*met(C)	*	*met(C)	*	*met(C)	*
=1-	=1-	=1-	=1-	=1-	=1-	=1-	=1-	=1-	=1-
!LO:TX:t=P:problem:przy kluczu BB- B-	!	!	!	!	!	!	!	!	!
!LO:TX:b:i:t=DVe roſe	!	!LO:TX:b:i:t=DVe roſe	!	!LO:TX:b:i:t=DVe roſe	!	!	!	!	!
!LO:TX:a:i:t=Prima parte.	!	!LO:TX:a:i:t=Prima parte.	!	!LO:TX:a:i:t=Prima parte.	!	!LO:TX:a:i:t=Prima parte.	!	!LO:TX:a:i:t=Prima parte.	!
00r	.	00r	.	0r	.	1d	DVe	2r	.
.	.	.	.	.	.	.	.	2dd\	DVe
.	.	.	.	.	.	2e/	ro-	2cc\	ro-
.	.	.	.	.	.	2f#X/	-ſe	2a\	-ſe
=2-	=2-	=2-	=2-	=2-	=2-	=2-	=2-	=2-	=2-
.	.	.	.	1r	.	1g	fre-	1b-	fre-
.	.	.	.	2r	.	1f#X	-ſche	1a	-ſch'e
.	.	.	.	2d\	E	.	.	.	.
=3-	=3-	=3-	=3-	=3-	=3-	=3-	=3-	=3-	=3-
00r	.	00r	.	2g\	col-	2g/	col-	2b-\	col-
.	.	.	.	2f\	t'_in	2a\	-t'_in	2cc\	-t'in
.	.	.	.	4B-/	pa-	4d/	pa-	1dd	pa-
.	.	.	.	4c/	.	4e/	.	.	.
.	.	.	.	4d\	.	4fny/	.	.	.
.	.	.	.	4e\	.	4g/	.	.	.
=4-	=4-	=4-	=4-	=4-	=4-	=4-	=4-	=4-	=4-
.	.	.	.	2f\	.	2a\	.	2cc\	-ra-
.	.	.	.	2g\	-ra-	2b-\	-ra-	2.b-\	-di-
.	.	.	.	1f	-di-	1cc	-di-	.	.
.	.	.	.	.	.	.	.	8a\	.
.	.	.	.	.	.	.	.	8g\	.
.	.	.	.	.	.	.	.	2a\	.
=5-	=5-	=5-	=5-	=5-	=5-	=5-	=5-	=5-	=5-
!	!	!	!	!	!	!	!	!LO:SIC:v:t=custos dd	!
00r	.	2r	.	2B-/	-ſo	2dd\	-ſo	2b-\	-ſo
!	!	!	!	!	!	!	!	!LO:LB:g=original	!
.	.	2B-\	L'al-	4r	.	4r	.	4r	.
!	!	!	!	!LO:SIC:v:t=custos g	!	!LO:SIC:v:t=custos B	!	!	!
.	.	.	.	4f\	L'al-	4b-\	L'al-	4dd\	L'al-
!	!	!	!	!LO:LB:g=original	!	!LO:LB:g=original	!	!	!
.	.	2G/	-tr'hier	2g\	-tr'hier	2b-\	-tr'hier	2dd\	-tr'hier
.	.	2B-\	na-	2f\	na-	2b-\	na-	2dd\	na-
=6-	=6-	=6-	=6-	=6-	=6-	=6-	=6-	=6-	=6-
.	.	2F/	-ſcen-	2f\	-ſcen-	2a\	-ſcen-	2cc\	-ſcen-
.	.	4F/	-d'il	2c/	-do	2f/	-do	4a\	-d'il
.	.	4G/	di	.	.	.	.	4b-\	di
.	.	4A/	pri-	2r	.	2r	.	4cc\	pri-
.	.	8A/	-mo	.	.	.	.	8cc\	-mo
.	.	8A/	di	.	.	.	.	8cc\	di
.	.	2B-\	Mag-	4d\	il	4f/	il	2dd\	Mag-
.	.	.	.	4e\	di	4g\	di	.	.
=7-	=7-	=7-	=7-	=7-	=7-	=7-	=7-	=7-	=7-
!	!	!LO:SIC:v:t=custos G	!	!	!	!	!	!	!
1r	.	2A/	-gio	4f\	pri-	4a\	pri-	2cc\	-gio
.	.	.	.	8e\	-mo	8a\	-mo	.	.
.	.	.	.	8f\	di	8a\	di	.	.
!	!	!LO:LB:g=original	!	!	!	!	!	!	!
.	.	4r	.	2g\	Mag-	2b-\	mag-	4r	.
.	.	4G/	Bel	.	.	.	.	4dd\	Bel
2r	.	2F#X/	do-	2d\	-gio	2a\	-gio	4.dd\	do-
.	.	.	.	.	.	.	.	8cc\	no_e
4r	.	2G/	-no	4r	.	4r	.	4b-\	d'un'
4G\	Bel	.	.	4g\	Bel	4dd\	Bel	4b-\	a-
=8-	=8-	=8-	=8-	=8-	=8-	=8-	=8-	=8-	=8-
2D/	do-	2r	.	4.f\	do-	4.dd\	do-	2a\	-man-
.	.	.	.	8e\	no_e	8cc\	no_e	.	.
2GG/	-no	4r	.	4d\	d'un'	4b-\	d_un	4g\	-te
*	*	*	*ij	*	*	*	*	*	*
!	!	!	!	!	!	!	!	!LO:SIC:v:t=custos dd	!
.	.	4G/	Bel	4d\	a-	4b-\	a-	4dd\	Bel
!	!	!	!	!	!	!	!	!LO:LB:g=original	!
2r	.	2F#X/	do-	2d\	-man-	2a\	-man-	4.dd\	do-
.	.	.	.	.	.	.	.	8cc\	no_e
4r	.	2G/	-no	4d\	-te	4g\	-te	4b-\	d'un'
*	*ij	*	*Xij	*	*	*	*	*	*
!	!	!	!	!LO:SIC:v:t=custos f#	!	!LO:SIC:v:t=custos dd	!	!	!
4G\	Bel	.	.	4g\	Bel	4dd\	Bel	4b-\	a-
!	!	!	!	!LO:LB:g=original	!	!LO:LB:g=original	!	!	!
=9-	=9-	=9-	=9-	=9-	=9-	=9-	=9-	=9-	=9-
2D/	do-	2r	.	2f#X\	do-	4.dd\	do-	2a\	-man-
.	.	.	.	.	.	8cc\	no_e	.	.
2GG/	-no	4r	.	2g\	-no	4b-\	d'un	2g/	-t'an-
*	*Xij	*	*	*	*	*	*	*	*
.	.	4d\	Bel	.	.	4b-\	a-	.	.
1r	.	4.d\	do-	4r	.	2a\	-man-	2f#X/	-ti-
.	.	.	.	4d\	Bel	.	.	.	.
.	.	8c\	no_e	.	.	.	.	.	.
.	.	4B-\	d'un'	4.d\	do-	2g/	te_an-	2g/	-quo_e
.	.	4B-\	a-	.	.	.	.	.	.
.	.	.	.	8d\	no_e	.	.	.	.
=10-	=10-	=10-	=10-	=10-	=10-	=10-	=10-	=10-	=10-
2r	.	2A/	-man-	2c/	d'un	2f#X/	-ti-	2a\	ſag-
4r	.	2G/	-te	2B-/	a-	2g/	quo_e	4d/	-gio
!LO:SIC:v:t=custos F#	!	!	!	!	!	!	!	!	!
4G\	an-	.	.	.	.	.	.	4dd\	Bel
!LO:LB:g=original	!	!	!	!	!	!	!	!	!
2F#X\	-ti-	2r	.	2.d\	-man-	2a\	ſag-	4.dd\	do-
.	.	.	.	.	.	.	.	8cc\	no_e
2G\	quo_e	2d\	an-	.	.	2d/	-gio	4b-\	d'un'
.	.	.	.	4g\	-t'_an-	.	.	4b-\	a-
=11-	=11-	=11-	=11-	=11-	=11-	=11-	=11-	=11-	=11-
0A	ſag-	2c#X\	-ti-	4fny\	-ti-	2r	.	4.a\	-man-
.	.	.	.	2e\	quo_e	.	.	.	.
.	.	.	.	.	.	.	.	8g/	-t'_an-
!	!	!LO:SIC:v:t=custos e	!	!	!	!	!	!	!
.	.	2d\	quo_e	.	.	2a\	e	4.fny/	-ti-
.	.	.	.	2d\	ſag-	.	.	.	.
!	!	!	!	!	!	!	!	!LO:SIC:v:t=custos e	!
.	.	.	.	.	.	.	.	8f/	quo_e
!	!	!LO:LB:g=original	!	!	!	!	!	!	!
.	.	2e\	ſag-	.	.	1a	ſag-	1e	ſag-
.	.	.	.	8c#X/	.	.	.	.	.
!	!	!	!	!LO:N:acc=#	!	!	!	!	!
.	.	.	.	8Bn/	.	.	.	.	.
.	.	2A/	-gio	2c#X/	.	.	.	.	.
=12-	=12-	=12-	=12-	=12-	=12-	=12-	=12-	=12-	=12-
1D	-gio	0r	.	1d	-gio	1a	-gio	1f#X	-gio
1r	.	.	.	4r	.	2dd\	Trà	1r	.
!	!	!	!	!LO:SIC:v:t=custos f	!	!	!	!	!
.	.	.	.	4d\	Trà	.	.	.	.
!	!	!	!	!LO:LB:g=original	!	!	!	!	!
.	.	.	.	4f\	duo	4dd\	duo	.	.
!	!	!	!	!	!	!LO:SIC:v:t=custos B	!	!	!
.	.	.	.	4e\	mi-	4cc\	mi-	.	.
!	!	!	!	!	!	!LO:LB:g=original	!	!	!
=13-	=13-	=13-	=13-	=13-	=13-	=13-	=13-	=13-	=13-
2r	.	2r	.	2g\	-no-	2b-\	-no-	1r	.
4r	.	2d\	Trà	2f\	-ri	2a\	-ri	.	.
4D\	Trà	.	.	.	.	.	.	.	.
4Fny\	duo	4d\	duo	2r	.	1r	.	2r	.
4E\	mi-	4cny\	mi-	.	.	.	.	.	.
2G\	-no-	2B-\	-no-	2g\	Trà	.	.	4r	.
.	.	.	.	.	.	.	.	4g\	Trà
=14-	=14-	=14-	=14-	=14-	=14-	=14-	=14-	=14-	=14-
2D/	-ri	2d\	-ri	4g\	duo	1r	.	4b-\	duo
.	.	.	.	4f\	mi-	.	.	4a\	mi-
2r	.	2r	.	2e-X\	-no-	.	.	2cc\	-no-
4r	.	4r	.	2.d\	-ri_e-	4r	.	2.dd\	-r'_e-
2D/	e-	2A/	e-	.	.	2f#X/	e-	.	.
4D/	-gual-	4A/	-gual-	4d\	-gual-	4f#/	-gual-	4a\	-gual-
=15-	=15-	=15-	=15-	=15-	=15-	=15-	=15-	=15-	=15-
2.D/	-men-	2.A/	-men-	2.d\	-men-	2.f#/	-men-	2.a\	-men-
4D/	-te	4A/	-te	4d\	-te	4f#/	-te	4a\	-te
4r	.	4r	.	4r	.	4r	.	4r	.
!	!	!	!	!	!	!	!	!LO:N:acc=#	!
4GG/	di-	4G/	di-	4d\	di-	4g/	di-	4bn\	di-
1C/	-ui-	1G/	-ui-	1eny\	-ui-	1g/	-ui-	1cc\	-ui-
=16-	=16-	=16-	=16-	=16-	=16-	=16-	=16-	=16-	=16-
.	.	.	.	.	.	.	.	.	.
2C/	-ſo	2c\	-ſo	2e\	-ſo	2g/	-ſo	2cc\	-ſo
1r	.	1r	.	2r	.	2r	.	2.g/	Con
.	.	.	.	2.cny/	Con	2.e/	Con	.	.
.	.	.	.	.	.	.	.	4fny/	ſi
=17-	=17-	=17-	=17-	=17-	=17-	=17-	=17-	=17-	=17-
00r	.	00r	.	.	.	.	.	2g\	dol-
!	!	!	!	!LO:N:acc=#	!	!	!	!	!
.	.	.	.	4Bn/	ſi	4d/	ſi	.	.
!	!	!	!	!LO:SIC:v:t=custos c#	!	!	!	!	!
.	.	.	.	2c/	dol-	2e/	dol-	4g\	-ce
!	!	!	!	!	!	!	!	!LO:SIC:v:t=custos a	!
.	.	.	.	.	.	.	.	4g\	par-
!	!	!	!	!LO:LB:g=original	!	!	!	!LO:LB:g=original	!
.	.	.	.	4c#X/	-ce	4e/	-ce	2.a\	-lar
.	.	.	.	4c#/	par-	4e/	par-	.	.
.	.	.	.	2.d\	-lar	2.fny/	-lar	.	.
.	.	.	.	.	.	.	.	4a\	e
=18-	=18-	=18-	=18-	=18-	=18-	=18-	=18-	=18-	=18-
.	.	.	.	.	.	.	.	2.b-\	con
.	.	.	.	4d\	e	4f/	e	.	.
.	.	.	.	2.e-X\	con	2.g/	con	.	.
.	.	.	.	.	.	.	.	4g/	vn
.	.	.	.	.	.	.	.	2.cc\	ri-
!	!	!	!	!	!	!LO:SIC:v:t=custos a	!	!	!
.	.	.	.	4cny\	vn	4e/	vn	.	.
!	!	!	!	!	!	!LO:LB:g=original	!	!	!
.	.	.	.	8f\	ri-	8a\	ri-	.	.
.	.	.	.	8e-\	.	8g/	.	.	.
.	.	.	.	8d\	.	8f/	.	8b-\	.
.	.	.	.	8c\	.	8e/	.	8a\	.
=19-	=19-	=19-	=19-	=19-	=19-	=19-	=19-	=19-	=19-
1r	.	1r	.	4d\	.	4f#X/	.	4b-\	.
.	.	.	.	8c/	.	2g/	.	8a\	.
.	.	.	.	8B-y/	.	.	.	8g\	.
.	.	.	.	4c/	.	.	.	2a\	.
.	.	.	.	4d\	.	4f#X/	.	.	.
4r	.	4r	.	2G/	-ſo	4.g/	-ſo	2g/	-ſo
!LO:SIC:v:t=custos G	!	!LO:SIC:v:t=custos B	!	!	!	!	!	!	!
4G\	Da	4B-\	Da	.	.	.	.	.	.
.	.	.	.	.	.	16f#/	.	.	.
.	.	.	.	.	.	16e/	.	.	.
!LO:LB:g=original	!	!LO:LB:g=original	!	!	!	!	!	!	!
2.G\	far	2B-\	far	2r	.	2d/	.	4r	.
.	.	.	.	.	.	.	.	4b-\	Da
=20-	=20-	=20-	=20-	=20-	=20-	=20-	=20-	=20-	=20-
.	.	2d\	in-	1r	.	1r	.	4b-\	far
4B-\	in-	.	.	.	.	.	.	4dd\	in-
4A\	-na-	4e\	-na-	.	.	.	.	4cc\	-na-
4G\	-mo-	4e\	-mo-	.	.	.	.	4b-\	-mo-
2F\	-rar	2f\	-rar	1c	vn	4r	.	2a\	-rar
.	.	.	.	.	.	4a\	vn	.	.
4E\	vn	4r	.	.	.	4g/	huom	4r	.
4F\	huom	4A\	vn	.	.	4cc\	ſel-	2a\	vn
=21-	=21-	=21-	=21-	=21-	=21-	=21-	=21-	=21-	=21-
4D\	ſel-	4A\	huom	2d\	huom	4fny/	-uag-	.	.
!	!	!	!	!	!	!LO:SIC:v:t=custos e	!	!LO:SIC:v:t=custos f	!
4G\	-uag-	4B-\	ſel-	.	.	4d/	-gio	2g/	huom
!	!	!	!	!	!	!LO:LB:g=original	!	!	!
4C/	-gio	4G/	-uag-	2c/	ſel-	4e/	vn	.	.
!	!	!	!	!	!	!	!	!LO:LB:g=original	!
4AA/	vn	4A/	-gio	.	.	4a\	huom	2f/	ſel-
!	!	!	!	!LO:SIC:v:t=custos e	!	!	!	!	!
4BB-/	huom	4Fny/	vn	2d\	-uag-	4r	.	.	.
4GG/	ſel-	4B-\	huom	.	.	4dd\	ſel-	2g/	-uag-
!	!	!	!	!LO:LB:g=original	!	!	!	!	!
4C/	-uag-	4G/	ſel-	4eny\	-gio	2cc\	-uag-	.	.
4FF/	-gio	2c\	-uag-	4f\	Di	.	.	4a\	-gio
=22-	=22-	=22-	=22-	=22-	=22-	=22-	=22-	=22-	=22-
2F\	Di	.	.	4.f\	sfa-	4a\	-gio	4r	.
.	.	4F/	-gio	.	.	4cc\	Di	4a\	Di
.	.	.	.	8e\	-uil-	.	.	.	.
4.F\	sfa-	4A/	Di	4d\	-lan-	4.f/	sfa-	4.a\	sfa-
.	.	4.f\	sfa-	4c\	-te	.	.	.	.
8E\	-uil-	.	.	.	.	8g/	-uil-	8g/	-uil-
4.D/	-lan-	.	.	4r	.	2a\	-lan-	4.f/	-lan-
.	.	8e\	-uil-	.	.	.	.	.	.
.	.	4.d\	-lan-	4f\	(et)	.	.	.	.
!LO:SIC:v:t=custos BB	!	!	!	!	!	!	!	!	!
8C/	-t'_et	.	.	.	.	.	.	8e/	t'_et
!LO:LB:g=original	!	!	!	!	!	!	!	!	!
4BB-/	a-	.	.	4.f\	a-	2b-\	t'_et	4d/	a-
!	!	!LO:SIC:v:t=custos B	!	!	!	!	!	!	!
.	.	8c\	-t'_et	.	.	.	.	.	.
!	!	!LO:LB:g=original	!	!	!	!	!	!	!
4BB-/	-mo-	2B-\	a-	.	.	.	.	4d/	-mo-
.	.	.	.	8f\	-mo-	.	.	.	.
=23-	=23-	=23-	=23-	=23-	=23-	=23-	=23-	=23-	=23-
4BB-/	-ro-	.	.	2f\	-ro-	4b-\	a-	4dd\	-ro-
4AA/	-ſo	4F/	-mo-	.	.	4cc\	-mo-	4cc\	-ſo
8BB-/	rag-	4F/	-ro-	2f\	-ſo	4dd\	-ro-	2.b-\	rag-
8C/	.	.	.	.	.	.	.	.	.
8D/	.	4F/	-ſo	.	.	4dd\	-ſo	.	.
8E\	.	.	.	.	.	.	.	.	.
1F	.	8F/	rag-	1f	rag-	1cc	rag-	.	.
.	.	8G/	.	.	.	.	.	.	.
.	.	8A/	.	.	.	.	.	8a\	.
.	.	8B-\	.	.	.	.	.	8g\	.
.	.	2c\	.	.	.	.	.	2a\	.
=24-	=24-	=24-	=24-	=24-	=24-	=24-	=24-	=24-	=24-
4BB-/	-gio	4B-\	-gio	2f\	-gio	2dd\	-gio	2b-\	-gio
4B-\	E	4d\	E	.	.	.	.	.	.
4A\	l'vn	4c\	lun	4r	.	2r	.	2r	.
4F\	e	4A\	e	4f\	E	.	.	.	.
2A\	l'al-	2c\	l'al-	4e\	l'un	4r	.	1r	.
.	.	.	.	4f\	e	4cc\	E	.	.
2G\	-tro	2d\	-tro	2g\	l'al-	4b-\	l'vn	.	.
!	!	!	!	!	!	!LO:SIC:v:t=custos b	!	!	!
.	.	.	.	.	.	4g\	e	.	.
!	!	!	!	!	!	!LO:LB:g=original	!	!	!
=25-	=25-	=25-	=25-	=25-	=25-	=25-	=25-	=25-	=25-
4r	.	4r	.	4g\	-tro	2b-\	l'al-	2r	.
*	*	*	*	*	*ij	*	*	*	*
!	!	!	!	!LO:SIC:v:t=custos f	!	!	!	!	!
4G\	e	4B-\	E	4d\	e	.	.	.	.
!	!	!	!	!LO:LB:g=original	!	!	!	!	!
4F\	l'un	4c\	l'un	4f\	l'un	4a\	-tro	4r	.
*	*	*	*	*	*	*	*ij	*	*
!	!	!	!	!	!	!	!	!LO:SIC:v:t=custos cc	!
4D\	e	4d\	e	4f\	e	4b-\	e	4dd\	E
!	!	!	!	!	!	!	!	!LO:LB:g=original	!
1F	l'al-	1A	l'al-	1f	l'al-	4a\	l'vn	4cc\	l'un
.	.	.	.	.	.	4f/	e	4a\	e
.	.	.	.	.	.	2a\	l'al-	1cc\	l'al-
=26-	=26-	=26-	=26-	=26-	=26-	=26-	=26-	=26-	=26-
!LO:SIC:v:t=custos G	!	!	!	!	!	!	!	!	!
2C/	-tro	2c\	-tro	2e\	-tro	1g	-tro	.	.
*	*	*	*	*	*Xij	*	*Xij	*	*
!LO:LB:g=original	!	!LO:SIC:v:t=custos A	!	!	!	!	!	!	!
1G	fe	1Bn	fe	1d	fe	.	.	2g/	-tro
.	.	.	.	.	.	2g/	fe	1r	.
!	!	!LO:LB:g=original	!	!	!	!	!	!	!
2D\	can-	2A/	can-	2d\	can-	2f/	can-	.	.
=27-	=27-	=27-	=27-	=27-	=27-	=27-	=27-	=27-	=27-
2E\	-giar	2G#X/	-giar	2Bn/	-giar	2e/	-giar	0r	.
2F\	in	1A	in	2A/	in	2d/	in	.	.
1E	vi-	.	.	1Bn	vi-	1e	vi-	.	.
.	.	2G#X/	vi-	.	.	.	.	.	.
=28-	=28-	=28-	=28-	=28-	=28-	=28-	=28-	=28-	=28-
2AA/	-ſo	2A/	-ſo	4c\	-ſo	4e/	-ſo	2r	.
.	.	.	.	4f\	E	4a\	E	.	.
1C	fe	4r	.	4e\	l'un	4g/	l_un	1cc	fe
.	.	4A/	E	4c\	e	4e/	e	.	.
.	.	4Gny/	l'un	2e\	l'al-	1g	l'al-	.	.
.	.	4E/	e	.	.	.	.	.	.
2GG/	ca(n)-	2G/	l'al-	2d\	-tro	.	.	2b-\	can-
=29-	=29-	=29-	=29-	=29-	=29-	=29-	=29-	=29-	=29-
2AA/	-giar	2C/	-tro	2c\	fe	2e/	-tro	2a\	-giar
2BB-/	in	1G	fe	2d\	can-	2r	.	2g/	in
0.AA	vi-	.	.	2e\	-giar	2c/	fe	0.a	vi-
!	!	!	!	!LO:SIC:v:t=custos c#	!	!LO:SIC:v:t=custos e	!	!	!
.	.	2F/	can-	2d\	in	2d/	can-	.	.
!	!	!	!	!LO:LB:g=original	!	!	!	!	!
=30-	=30-	=30-	=30-	=30-	=30-	=30-	=30-	=30-	=30-
.	.	2E/	-giar	2c#X/	vi-	2e/	-giar	.	.
.	.	2D/	in	2.d\	.	2f/	in	.	.
.	.	1E	vi-	.	.	1e	vi-	.	.
.	.	.	.	8c#X/	.	.	.	.	.
!	!	!	!	!LO:N:acc=#	!	!	!	!	!
.	.	.	.	8Bn/	.	.	.	.	.
.	.	.	.	2c#X/	.	.	.	.	.
=31-	=31-	=31-	=31-	=31-	=31-	=31-	=31-	=31-	=31-
0Dl	-ſo.	0Dl	-ſo.	0dl	-ſo.	0f#Xl	-ſo.	0al	-ſo.
==	==	==	==	==	==	==	==	==	==
*-	*-	*-	*-	*-	*-	*-	*-	*-	*-
!!!system-decoration: [(*)]
!!!RDF**kern: l = terminal long
!!!ENC: Mateusz Solarz
!!!END: 2022-06-10
!!!ENC: Andrzej Kubiczek
!!!END: 2022-07-21
!!!YEC: Copyright 2022 Narodowy Instytut Fryderyka Chopina (https://polishscores.org)
!!!YEM: License CC-BY-4.0 (https://creativecommons.org/licenses/by/4.0)
